src/lib/packages/icons/src/assets/filled/skype.svg

<svg width="24" height="24" viewBox="0 0 24 24" fill="none" xmlns="http://www.w3.org/2000/svg">
<path d="M20.07 13.76C20.19 13.2 20.26 12.6 20.26 12C20.26 7.44 16.57 3.75 12.01 3.75C11.41 3.75 10.82 3.82 10.25 3.94C9.49 3.35 8.54001 3 7.51001 3C5.03001 3 3.01001 5.02 3.01001 7.5C3.01001 8.53 3.36001 9.48001 3.95001 10.24C3.83001 10.8 3.76001 11.4 3.76001 12C3.76001 16.56 7.45001 20.25 12.01 20.25C12.61 20.25 13.2 20.18 13.77 20.06C14.53 20.65 15.48 21 16.51 21C18.99 21 21.01 18.98 21.01 16.5C21.01 15.47 20.66 14.52 20.08 13.76H20.07ZM12.17 17.29C9.62998 17.29 7.51001 16.16 7.51001 14.77C7.51001 14.15 7.86002 13.59 8.65002 13.59C9.86002 13.59 9.97 15.33 12.06 15.33C13.05 15.33 13.7 14.89 13.7 14.31C13.7 13.59 13.08 13.47 12.07 13.23C9.65001 12.63 7.51001 12.38 7.51001 9.85001C7.51001 7.56001 9.77998 6.71001 11.73 6.71001C13.86 6.71001 16.02 7.56001 16.02 8.85001C16.02 9.50001 15.58 10.08 14.85 10.08C13.75 10.08 13.72 8.78 11.95 8.78C10.96 8.78 10.32 9.04999 10.32 9.64999C10.32 10.42 11.13 10.49 12.99 10.93C14.59 11.29 16.5 11.97 16.5 13.93C16.5 16.22 14.29 17.28 12.16 17.28L12.17 17.29Z" fill="currentColor"/>
</svg>

<svg xmlns="http://www.w3.org/2000/svg" width="24" height="24" fill="none"><path fill="currentColor" d="M20.07 13.76a8.245 8.245 0 0 0-9.82-9.82C9.49 3.35 8.54 3 7.51 3c-2.48 0-4.5 2.02-4.5 4.5 0 1.03.35 1.98.94 2.74a8.245 8.245 0 0 0 9.82 9.82c.76.59 1.71.94 2.74.94 2.48 0 4.5-2.02 4.5-4.5 0-1.03-.35-1.98-.93-2.74h-.01Zm-7.9 3.53c-2.54 0-4.66-1.13-4.66-2.52 0-.62.35-1.18 1.14-1.18 1.21 0 1.32 1.74 3.41 1.74.99 0 1.64-.44 1.64-1.02 0-.72-.62-.84-1.63-1.08-2.42-.6-4.56-.85-4.56-3.38 0-2.29 2.27-3.14 4.22-3.14 2.13 0 4.29.85 4.29 2.14 0 .65-.44 1.23-1.17 1.23-1.1 0-1.13-1.3-2.9-1.3-.99 0-1.63.27-1.63.87 0 .77.81.84 2.67 1.28 1.6.36 3.51 1.04 3.51 3 0 2.29-2.21 3.35-4.34 3.35l.01.01Z"/></svg>
